X: 10110
T: Difyrrwch Gwyr Dyfi
R: jig
M: 6/8
K: Dminor
|:F|FAA AcA|BGG G2 B|AAA B>AG|FDD D2 F|
FAA AcA|BGG G2 B|AAA BAG|FDD D2:|
|:A|ddd fed|cAA A2 ^c|ded fed|^cAA A2 B|
c>dc cBA|BGG G2 F/G/|A>BA BAG|FDD D2:|

